X: 17829
T: Hope Valley
R: reel
M: 4/4
K: Dmajor
A/B/c|dcAF- FGFD|E2 ED EFED|dcAF- FGFD|E2 F2 A2 c/d/e|
dcAF- FGFD|E2 ED EFED|GABA- AGFE-|EFED D2:|
|:EF|F G2 F GAGF-|FEFG F2 ED|F G2 F GAGF-|F2 A2 c2 A2|
F G2 F GAGF-|FEFG F2 ED|GABA- AGFE-|EFED D2:|

